SPEED 0

CLEAR FFFFFFFF

SPEED 40
PEN_UP
HOME
PEN_DOWN

REPEAT 100
{   
   FORWARD random*123
   ROTATE random*90
//   PEN_UP
//   FORWARD random*123
//   ROTATE random*90
   PEN_DOWN
}


PEN_UP
HOME
ROTATE random*360
FORWARD 236+random*123
SPEED 1234567
FILL FFFF0000,0